X:1
T:Title
%%score { ( 1 3 ) | ( 2 4 ) }
L:1/8
M:3/4
K:Eb
V:1 treble nm="Grand Piano"
V:3 treble 
V:2 bass 
V:4 bass 
V:1
 z2 z2[Q:1/4=100] [GB]>[_G=A] | [GB]2 [Ge]2 G>_G | G2 B2 c>B | F2 [Ac]2 [GB][FA] | %4
 [EG]4 [GB]>[_G=A] | [GB]2 [Ge]2 G>_G | G2 B2 [GB][GB] | [Bd]c [GB]A [B,EG]>[A,DF] | %8
[M:2/4] [G,E]4 |[M:1/4] [G,E][G,E] |[M:3/4] [EG][DF] [DA]2 D2 | E2 G2 EE | [EG][DF] [Ac]2 [GB]>A | %13
 G4 GG | [FG]2 [FG]2 [FA][FG] | [Ge]>[Fd] [Ec]2 cB | =AF e2 d>c |[M:2/4] [DB]4 | %18
[M:1/4] [GB]>[_G=A] |[M:3/4] [GB]2 [Ge]2 G>_G | G2 B2 c>B | F2 [Ac]2 [GB][FA] | [EG]4 [GB]>[_G=A] | %23
 [GB]2 [Ge]2 G>_G | G2 B2 [GB][GB] | [Bd]c [GB]A [B,EG]>[A,DF] |[M:6/4] .[G,E]6 z6 |] %27
V:2
 z2 z2 [E,B,]>[E,C] | [E,B,]2 [E,B,]2 [E,B,E]>[E,=A,E] | [E,B,E]2 [E,G,E]2 [E,A,E]>[G,B,E] | %3
 [B,D]2 [B,,B,]2 [B,,B,][B,,B,] | [E,B,]4 [E,E]>[E,C] | [E,B,]2 [E,B,]2 [E,B,E]>[E,=A,E] | %6
 [E,B,E]2 [E,G,E]2 [E,B,][E,B,] | z A z F B,,>B,, |[M:2/4] E,4 |[M:1/4] E,E, | %10
[M:3/4] [B,,B,][B,,B,] [B,,F,]2 [B,,A,B,]2 | [E,G,B,]2 [E,B,E]2 [E,G,][E,G,] | %12
 [B,,B,][B,,B,] [B,,B,]2 z z/ F/ | [E,B,E]4 [E,B,E][E,B,E] | [D,=B,]2 [D,B,]2 [D,B,][D,B,] | %15
 [C,C]2 [C,C]2 [F,E][F,D] | [F,C][F,=A,] [F,CF]2 [B,F]>[A,E] |[M:2/4] [B,,B,]4 | %18
[M:1/4] [E,B,]>[E,C] |[M:3/4] [E,B,]2 [E,B,]2 [E,B,E]>[E,=A,E] | %20
 [E,B,E]2 [E,G,E]2 [E,A,E]>[G,B,E] | [B,D]2 [B,,B,]2 [B,,B,][B,,B,] | [E,B,]4 [E,E]>[E,C] | %23
 [E,B,]2 [E,B,]2 [E,B,E]>[E,=A,E] | [E,B,E]2 [E,G,E]2 [E,B,][E,B,] | z A z F B,,>B,, | %26
[M:6/4] .E,6 z6 |] %27
V:3
 x6 | x6 | x6 | x6 | x6 | x6 | x6 | z2 C2 z2 |[M:2/4] x4 |[M:1/4] x2 |[M:3/4] x6 | x6 | x6 | x6 | %14
 x6 | x6 | x6 |[M:2/4] x4 |[M:1/4] x2 |[M:3/4] x6 | x6 | x6 | x6 | x6 | x6 | z2 C2 z2 | %26
[M:6/4] x12 |] %27
V:4
 x6 | x6 | x6 | x6 | x6 | x6 | x6 | [A,,A,]2 A,,2 z2 |[M:2/4] x4 |[M:1/4] x2 |[M:3/4] x6 | x6 | %12
 z2 z2 [B,,B,]2 | x6 | x6 | x6 | z2 z2 F,2 |[M:2/4] x4 |[M:1/4] x2 |[M:3/4] x6 | x6 | x6 | x6 | %23
 x6 | x6 | [A,,A,]2 A,,2 z2 |[M:6/4] x12 |] %27

